X:1
T:Moonlight Swim
T:Moonlight Swim
T:Ben Weisman
T:Sylvia Dee
C:Ben Weisman
Z:All Rights Reserved
L:1/8
M:2/2
K:F
V:1 treble 
%%MIDI program 40
%%MIDI control 7 100
%%MIDI control 10 64
V:1
"^tacet" C>D F>A |:"F" c4"Bb7" d4 |"F" c6 d>c | d2 d>c d2 d>c | d>cA>F D3 c | d2 d>c"Bb7" d2 d>c | %6
w: Let's go on a|moon- light|swim, Far a-|way from the crowd, all a-|lone up- on the beach, Our|lips and our arms close with-|
"F" d>cA>F D2"F#dim" C2 |"C7" E8 | z2 A>G"Bb" F2 D2 |"F""Bb7" F8- |"F" F2 z2"^tacet" C>DF>A | %11
w: in each oth- er's reach will|be|On a moon- light|swim.|* Let's go on a|
"F" c4"Bb7" d4 |"F" c6 d>c | d2 d>c d2 d>c | d>cA>F D3 c | d2 d>c"Bb7" d2 d>c | %16
w: moon- light|swim, To the|raft we can race, and for|just a lit- tle while I'll|sit and pre- tend that you're|
"F" d>cA>F D2"F#dim" C2 |"C7" E8 | z2 A>G"Bb" F2 D2 |"F""Bb7" (F8 |"F" F2) z2"^tacet" E2 F2 | %21
w: on a des- ers isle with|me|On a moon- light|swim.|* Though the|
"Bb" d6"A" ^c2 |"Bb" d6"A" ^c2 |"Bb" d2"A" ^c2"Bb" d2 B2 | F6 d2 |"F" c2"Fdim" =B2"F" c2 A2 | %26
w: air is|cold with|kiss- es, oh so|sweet I'll|keep you warm, so|
"C7" B2"Cdim" A2"C7" B4 |"Dm" z2 A2"G7" AG F2 |"C7" G4"^tacet" C>DF>A |"F" c4"Bb7" d4 |"F" c6 d>c | %31
w: ver- y warm|from head * to|feet. Let's go on a|moon- light|swim, We're in|
 d2 d>c d2 d>c | d>cA>F D3 c | d2 d>c"Bb7" d2 d>c |"F" d>cA>F D2"F#dim" C2 |"C7" E8 | %36
w: love and a- bove there's a|cra- zy gold bal- loon That|sits wink- in' down and in-|vit- in' us to come on|in|
 z2 A>G"Bb" F2 D2 |1"F" F4"Bdim" e>e d2 ||"C7" c4"^tacet" C>DF>A :|2"F" F4"Bb7" d>d d2 || %40
w: On a moon- light|swim. * * *|* Let's go on a|swim.- * * *|
"F" f4 f2 z2 |] %41
w: |

